app/images/stats_Flat_Tyre.svg

<svg width="72" height="61" viewBox="0 0 72 61" fill="none" xmlns="http://www.w3.org/2000/svg">
<path d="M43.1428 30.1382L43.5561 27.7988L48.2349 28.6253L47.8216 30.9647L43.1428 30.1382Z" fill="white"/>
<path d="M59.891 48.6625L61.1082 48.2196L60.2959 45.9883L59.0835 46.43C58.8621 46.0405 58.6045 45.6727 58.314 45.3316L59.1452 44.3424L57.3236 42.8129L56.4924 43.8056C56.1071 43.5789 55.7011 43.3892 55.2799 43.2392L55.5044 41.9638L53.1662 41.5518L52.9417 42.8248C52.4937 42.8225 52.0464 42.8623 51.6058 42.9435L51.1652 41.7311L48.9339 42.5421L49.3733 43.7534C49.1793 43.8626 48.9897 43.9814 48.8045 44.1096C48.6204 44.2391 48.4684 44.3994 48.2986 44.5431L47.2881 43.694L45.7609 45.5121L46.7596 46.3516C46.533 46.7364 46.3437 47.142 46.1944 47.5629L44.9059 47.3337L44.4927 49.6731L45.7692 49.8975C45.7667 50.3448 45.8065 50.7913 45.888 51.2311L44.672 51.674L45.4831 53.9053L46.6955 53.4636C46.9176 53.853 47.1752 54.2211 47.465 54.5632L46.6337 55.5512L48.4518 57.0783L49.2831 56.0856C49.6684 56.3123 50.0743 56.502 50.4955 56.652L50.2711 57.9274L52.6092 58.3383L52.8408 57.0629C52.8622 57.0629 52.8835 57.0688 52.9049 57.0688C53.3314 57.0647 53.7567 57.0222 54.1755 56.9418L54.6185 58.1589L56.8498 57.3479L56.4033 56.12C56.5957 56.0096 56.7928 55.9074 56.978 55.778C57.1633 55.6486 57.3141 55.4894 57.4839 55.3458L58.4957 56.1948L60.0216 54.3756L59.0229 53.536C59.2487 53.1522 59.4376 52.7478 59.587 52.3283L60.8707 52.5551L61.2839 50.2158L60.0085 49.9913C60.0118 49.5456 59.9724 49.1007 59.891 48.6625V48.6625ZM52.8847 45.195C53.1634 45.1956 53.4415 45.2202 53.716 45.2686C54.9134 45.4826 55.9821 46.1503 56.6994 47.1326C57.4167 48.115 57.7274 49.3363 57.5666 50.542C57.4058 51.7477 56.786 52.8448 55.8363 53.6049C54.8866 54.365 53.6803 54.7293 52.4687 54.622C51.257 54.5146 50.1335 53.944 49.3322 53.0288C48.5309 52.1137 48.1136 50.9247 48.1672 49.7095C48.2209 48.4943 48.7413 47.3466 49.6201 46.5056C50.4989 45.6646 51.6684 45.1952 52.8847 45.195Z" fill="white"/>
<path d="M51.5383 50.9087L51.9516 48.5693L54.2909 48.9826L53.8777 51.3219L51.5383 50.9087Z" fill="white"/>
<path d="M69.6063 30.0435C68.9826 29.1472 68.1872 28.3835 67.2663 27.7966C66.3453 27.2098 65.3171 26.8115 64.2412 26.6247L60.1883 25.9122L52.8626 9.21597C52.4706 8.32046 51.8632 7.5358 51.0945 6.93185C50.3259 6.3279 49.4198 5.92341 48.457 5.75441L18.2137 0.418969C16.6634 0.14788 15.0688 0.50252 13.7795 1.40515C12.4902 2.30779 11.6114 3.68477 11.3357 5.23428L6.18195 34.4753C6.1006 34.936 6.1108 35.4083 6.21197 35.8651C6.31314 36.3219 6.5033 36.7543 6.77159 37.1376C7.03988 37.5209 7.38105 37.8476 7.77561 38.099C8.17017 38.3505 8.61039 38.5217 9.07114 38.603L10.0532 38.7752C10.2806 38.8151 10.5148 38.7878 10.727 38.6967C10.9391 38.6056 11.1201 38.4546 11.2478 38.2622C12.397 36.53 14.0266 35.1708 15.9369 34.3512C17.8473 33.5317 19.9552 33.2874 22.0024 33.6483C24.0495 34.0092 25.9468 34.9597 27.4617 36.3832C28.9765 37.8067 30.043 39.6413 30.5305 41.662C30.5848 41.8869 30.7037 42.091 30.8725 42.2492C31.0413 42.4074 31.2526 42.5129 31.4805 42.5527L35.6925 43.296L32.5373 50.6585C32.474 50.8064 32.4413 50.9656 32.4413 51.1264C32.4413 51.2873 32.474 51.4464 32.5373 51.5943L35.3873 58.2502H30.0626V60.6252H44.3126V58.2502H38.9878L41.8378 51.5931C41.9012 51.4453 41.9339 51.2861 41.9339 51.1252C41.9339 50.9644 41.9012 50.8052 41.8378 50.6573L38.9273 43.8672L42.795 44.5488C43.0225 44.5902 43.2571 44.5635 43.4695 44.4723C43.682 44.3811 43.8629 44.2293 43.9896 44.0358C45.1385 42.3035 46.7681 40.9442 48.6783 40.1245C50.5886 39.3049 52.6966 39.0606 54.7437 39.4215C56.7908 39.7825 58.688 40.733 60.2028 42.1566C61.7175 43.5802 62.7839 45.4149 63.271 47.4357C63.3252 47.6607 63.444 47.8651 63.6128 48.0235C63.7816 48.1819 63.993 48.2876 64.221 48.3275L65.2031 48.5008C65.4078 48.5362 65.6152 48.554 65.823 48.5543C66.6602 48.5539 67.4706 48.2586 68.1118 47.7203C68.7531 47.182 69.1842 46.435 69.3297 45.6105L70.9791 36.2553C71.1725 35.1806 71.1508 34.0782 70.9152 33.0119C70.6795 31.9456 70.2347 30.9367 69.6063 30.0435V30.0435ZM35.4253 49.9377L37.1876 45.8278L38.9498 49.9377H35.4253ZM38.9498 52.3127L37.1876 56.4227L35.4253 52.3127H38.9498ZM50.6859 10.1707L57.3751 25.4147L42.0183 22.7072L44.6985 7.50716L48.0437 8.10091C48.6206 8.20136 49.1637 8.44291 49.6247 8.80403C50.0857 9.16515 50.4502 9.63464 50.6859 10.1707V10.1707ZM13.6751 5.65109C13.7562 5.19024 13.9274 4.74988 14.1788 4.35519C14.4302 3.9605 14.7569 3.6192 15.1402 3.35079C15.5235 3.08238 15.9559 2.89211 16.4128 2.79087C16.8697 2.68962 17.342 2.67938 17.8028 2.76072L42.3627 7.09153L39.6813 22.2951L11.6124 17.3456L13.6751 5.65109ZM10.375 24.3625L11.5447 24.5692L11.1338 26.9073L9.96295 26.7007L10.375 24.3625ZM9.72427 36.3064L9.48677 36.2637C9.17757 36.2072 8.90305 36.0312 8.7226 35.7739C8.54214 35.5165 8.47027 35.1985 8.52252 34.8885L8.72914 33.7188L11.7133 34.2437C10.9762 34.8557 10.3091 35.5475 9.72427 36.3064V36.3064ZM22.4151 31.3082C20.6616 31.0005 18.8638 31.0546 17.132 31.4673C15.4003 31.8801 13.7712 32.6426 12.3451 33.7082L12.6467 31.9982L9.13764 31.3795L9.55089 29.0401L10.7194 29.2467C10.8575 29.2703 10.9973 29.2822 11.1374 29.2823C11.6951 29.2813 12.2346 29.0841 12.6615 28.7252C13.0883 28.3663 13.3753 27.8686 13.472 27.3194L13.8829 24.9824C13.9373 24.6753 13.9306 24.3604 13.8633 24.0559C13.7959 23.7513 13.6693 23.463 13.4905 23.2074C13.3118 22.9518 13.0845 22.7339 12.8215 22.5662C12.5585 22.3984 12.2651 22.2841 11.958 22.2298L10.7871 22.0232L11.2003 19.685L39.2681 24.6345L36.3813 41.0065L32.63 40.3439C31.9249 38.043 30.5978 35.9816 28.7953 34.3872C26.9928 32.7927 24.7848 31.7272 22.4151 31.3082V31.3082ZM55.1604 37.0818C52.7899 36.6637 50.3498 36.9092 48.1101 37.7913C45.8704 38.6734 43.9183 40.1577 42.4696 42.08L38.7195 41.4186L41.6063 25.0465L63.8268 28.9653C64.5952 29.0987 65.3296 29.3831 65.9873 29.8022C66.6451 30.2213 67.2132 30.7667 67.6588 31.4068C67.8097 31.6367 67.9446 31.8768 68.0626 32.1252L64.582 31.5113C63.9628 31.4021 63.3255 31.5429 62.81 31.9029C62.2944 32.2628 61.9426 32.8125 61.8318 33.4315L61.4185 35.7697C61.3091 36.3899 61.4506 37.0283 61.8118 37.5443C62.173 38.0603 62.7244 38.4116 63.3446 38.5211L68.0234 39.3523L67.6113 41.6905L64.1035 41.0718L63.8018 42.7818C62.8267 41.2923 61.5569 40.0182 60.0707 39.0379C58.5846 38.0577 56.9135 37.392 55.1604 37.0818V37.0818ZM68.6421 35.8421L68.4366 37.0118L63.7579 36.1805L64.1711 33.8423L68.73 34.6463C68.7406 35.0468 68.7111 35.4474 68.6421 35.8421V35.8421ZM65.6163 46.1615L65.3788 46.1187C65.0905 45.2076 64.7018 44.3314 64.2198 43.5062L67.204 44.0323L66.9986 45.2008C66.9712 45.3548 66.9138 45.5019 66.8294 45.6336C66.7451 45.7653 66.6355 45.8791 66.5071 45.9683C66.3786 46.0576 66.2338 46.1206 66.081 46.1538C65.9281 46.1869 65.7702 46.1895 65.6163 46.1615V46.1615Z" fill="white"/>
<path d="M18.1875 48.75H3.9375C2.99267 48.75 2.08653 49.1253 1.41843 49.7934C0.750334 50.4615 0.375 51.3677 0.375 52.3125V57.0625C0.375 58.0073 0.750334 58.9135 1.41843 59.5816C2.08653 60.2497 2.99267 60.625 3.9375 60.625H18.1875C19.1323 60.625 20.0385 60.2497 20.7066 59.5816C21.3747 58.9135 21.75 58.0073 21.75 57.0625V52.3125C21.75 51.3677 21.3747 50.4615 20.7066 49.7934C20.0385 49.1253 19.1323 48.75 18.1875 48.75ZM15.7412 54.8253L14.8863 58.25H12.5825L13.4019 54.9761C13.471 54.7011 13.4394 54.4104 13.3128 54.1567L11.7964 51.125H13.8911L15.7412 54.8253ZM8.56875 54.1567L7.04638 51.125H9.14112L10.9912 54.8253L10.1363 58.25H7.8325L8.65188 54.9761C8.7228 54.7018 8.69332 54.4112 8.56875 54.1567V54.1567ZM2.75 57.0625V52.3125C2.75 51.9976 2.87511 51.6955 3.09781 51.4728C3.32051 51.2501 3.62256 51.125 3.9375 51.125H4.39112L6.24125 54.8253L5.38625 58.25H3.9375C3.62256 58.25 3.32051 58.1249 3.09781 57.9022C2.87511 57.6795 2.75 57.3774 2.75 57.0625ZM19.375 57.0625C19.375 57.3774 19.2499 57.6795 19.0272 57.9022C18.8045 58.1249 18.5024 58.25 18.1875 58.25H17.3325L18.1519 54.9761C18.221 54.7011 18.1894 54.4104 18.0628 54.1567L16.5464 51.125H18.1875C18.5024 51.125 18.8045 51.2501 19.0272 51.4728C19.2499 51.6955 19.375 51.9976 19.375 52.3125V57.0625Z" fill="white"/>
<path d="M8.6875 41.625H11.0625V46.375H8.6875V41.625Z" fill="white"/>
<path d="M13.4712 46.1152L14.6609 41.3661L16.9635 41.9429L15.7738 46.6921L13.4712 46.1152Z" fill="white"/>
<path d="M2.8103 41.9023L5.1129 41.3255L6.30264 46.0747L4.00005 46.6515L2.8103 41.9023Z" fill="white"/>
</svg>

<svg width="72" height="61" fill="none" xmlns="http://www.w3.org/2000/svg"><path d="M43.143 30.138l.413-2.34 4.679.827-.413 2.34-4.68-.827zm16.748 18.525l1.217-.443-.812-2.232-1.212.442a7.122 7.122 0 00-.77-1.098l.831-.99-1.821-1.53-.832.994a7.065 7.065 0 00-1.212-.567l.224-1.275-2.338-.412-.224 1.273a7.168 7.168 0 00-1.336.118l-.44-1.212-2.232.811.44 1.211c-.195.11-.384.228-.57.357-.184.13-.336.29-.505.433l-1.01-.849-1.528 1.818.999.84c-.227.384-.416.79-.566 1.21l-1.288-.228-.413 2.34 1.276.224c-.002.447.038.893.119 1.333l-1.216.443.811 2.231 1.213-.441c.222.389.48.757.769 1.1l-.831.987 1.818 1.527.831-.992c.385.226.791.416 1.212.566l-.224 1.275 2.338.411.232-1.275c.021 0 .042.006.064.006a7.102 7.102 0 001.27-.127l.444 1.217 2.23-.811-.446-1.228c.193-.11.39-.213.575-.342.185-.13.336-.289.506-.432l1.012.849 1.526-1.82-1-.839c.227-.384.416-.788.565-1.208l1.284.227.413-2.34-1.276-.224a6.992 6.992 0 00-.117-1.328zm-7.006-3.468a4.723 4.723 0 110 9.446 4.723 4.723 0 010-9.446z" fill="#fff"/><path d="M51.538 50.909l.414-2.34 2.339.414-.413 2.339-2.34-.413z" fill="#fff"/><path d="M69.606 30.044a8.257 8.257 0 00-5.365-3.42l-4.053-.712-7.325-16.696a5.928 5.928 0 00-4.406-3.462L18.214.42a5.946 5.946 0 00-6.878 4.815l-5.154 29.24a3.563 3.563 0 002.89 4.128l.981.172a1.188 1.188 0 001.195-.513 10.681 10.681 0 0119.282 3.4 1.186 1.186 0 00.95.89l4.213.744-3.156 7.362a1.19 1.19 0 000 .936l2.85 6.656h-5.324v2.375h14.25V58.25h-5.325l2.85-6.657a1.187 1.187 0 000-.936l-2.91-6.79 3.867.682a1.176 1.176 0 001.195-.513 10.68 10.68 0 0119.281 3.4 1.188 1.188 0 00.95.892l.982.173a3.562 3.562 0 004.127-2.89l1.65-9.356a8.256 8.256 0 00-1.374-6.212zm-34.18 19.894l1.762-4.11 1.762 4.11h-3.525zm3.524 2.375l-1.762 4.11-1.763-4.11h3.525zM50.686 10.17l6.69 15.244-15.358-2.708 2.68-15.2 3.346.594a3.552 3.552 0 012.642 2.07zm-37.01-4.52a3.561 3.561 0 014.127-2.89l24.56 4.33-2.682 15.204-28.069-4.95L13.675 5.65zm-3.301 18.712l1.17.206-.411 2.338-1.171-.206.412-2.338zm-.65 11.943l-.238-.042a1.196 1.196 0 01-.964-1.376l.206-1.17 2.984.526a12.976 12.976 0 00-1.989 2.062zm12.69-4.998a13.056 13.056 0 00-10.07 2.4l.302-1.71-3.51-.619.414-2.339 1.168.207a2.375 2.375 0 002.753-1.927l.41-2.338a2.374 2.374 0 00-1.924-2.752l-1.17-.207.412-2.338 28.068 4.95-2.887 16.372-3.751-.663a13.062 13.062 0 00-10.215-9.036zm32.745 5.774a13.053 13.053 0 00-12.69 4.998l-3.75-.661 2.886-16.372 22.22 3.918a5.898 5.898 0 013.833 2.442c.15.23.286.47.404.718l-3.481-.614a2.375 2.375 0 00-2.75 1.92l-.413 2.339a2.375 2.375 0 001.926 2.751l4.678.831-.412 2.339-3.508-.62-.301 1.71a13.043 13.043 0 00-8.642-5.7zm13.482-1.24l-.205 1.17-4.68-.831.414-2.339 4.559.804c.01.4-.019.801-.088 1.196zm-3.026 10.32l-.237-.043a12.89 12.89 0 00-1.16-2.613l2.985.526-.205 1.169a1.188 1.188 0 01-1.383.96z" fill="#fff"/><path d="M18.188 48.75H3.938a3.562 3.562 0 00-3.563 3.563v4.75a3.563 3.563 0 003.563 3.562h14.25a3.563 3.563 0 003.562-3.563v-4.75a3.563 3.563 0 00-3.563-3.562zm-2.447 6.075l-.855 3.425h-2.303l.819-3.274a1.188 1.188 0 00-.09-.82l-1.516-3.031h2.095l1.85 3.7zm-7.172-.668l-1.523-3.032h2.095l1.85 3.7-.855 3.425H7.833l.819-3.274c.07-.274.041-.565-.083-.82zM2.75 57.063v-4.75a1.188 1.188 0 011.188-1.188h.453l1.85 3.7-.855 3.425H3.937a1.187 1.187 0 01-1.187-1.188zm16.625 0a1.188 1.188 0 01-1.188 1.187h-.855l.82-3.274a1.188 1.188 0 00-.09-.82l-1.516-3.031h1.642a1.188 1.188 0 011.187 1.188v4.75zM8.688 41.625h2.374v4.75H8.688v-4.75zm4.783 4.49l1.19-4.749 2.303.577-1.19 4.75-2.303-.578zM2.81 41.902l2.303-.577 1.19 4.75L4 46.65l-1.19-4.749z" fill="#fff"/></svg>
